X:4774
T:Ohsay not Woman's Heart is bought. CJF.161
T:say not Woman's heart is bought,Oh. CJF.161
T:Woman's heart is bought,Oh say not. CJF.161
O:england
M:2/4
L:1/16
Q:60
S: C.J.Fox MS, 1829/33, Beverley,E.Yorks.
R:Air
A:East Yorkshire
B:Kidson Coll.Mitchell Lib.M1805
N:The triplets do not have 3'2 over them in the MS. - PJH.
K:G
G2|Bd3 ce3|d3B G2d2|e3fg3e|fd3z2d2|ec3eg3|(d2B2)(G2^G2)|A2e2d3A|B3Gz2d2|
d3dd3^c|d2ef A2A2|B3d d^c<e|fd3z2D2|E2G2{d}c3B|{B}A2G2{G}F2E2|F2A2d3c|B
2A2hB2d2|
g2zB e2zG|dc3z2D2|((3BAB) ((3dcA) G3A|BG3g3e|dB3z2d2|(cA3)(BG3)|(FA3z2d
2|
e3ef3f|g3gha3A|B2d2 G A2 d|BG3z2||
